X:1
T:Victory (Rowton), 88.77.88.7
T:Victory (Rowton), 88.77.88.7
T:Samuel James Rowton
T:Public Domain Courtesy of the Cyber Hymnal™
C:Samuel James Rowton
Z:Public Domain
Z:Courtesy of the Cyber Hymnal™
%%score ( 1 2 ) ( 3 4 )
L:1/8
Q:1/4=110
M:4/4
K:Eb
V:1 treble 
V:2 treble 
V:3 bass 
V:4 bass 
V:1
 [EG]3 [EG] [EB]2 [EG]2 | [DF]2 (E[DF]) [EG]2 E2 | [FA]3 [FA] [Fc]2 [FB]2 | %3
 [EG]2 (BA) [EG]2 [DF]2 | [FB]2 (=AB) [Gc]2 [EG]2 | [Fc]2 (Bc) d4 | [GB]2 (=AB) [Ed]2 [Ec]2 | %7
 [EB]2 [E=A]2 [DB]4 | [=EG]3 [EG] [Fc]2 [FA]2 | [DF]2 (GA) [EB]2 [EG]2 | [Ec]3 [Ec] [Fd]2 [FG]2 | %11
 [Ee]2 [Ec]2 [FB]2 [FA]2 | [EG]2 (AB) [Ec]2 [Ae]2 | [Af]3 [Ge] [Ge]4 |] %14
V:2
 x8 | x2 E x2 E2 x | x8 | x2 E2 x4 | x2 F2 x4 | x2 F2 F2 ^F2 | x2 G2 x4 | x8 | x8 | x2 D2 x4 | x8 | %11
 x8 | x2 E2 x4 | x8 |] %14
V:3
 [E,B,]3 [E,B,] [G,B,]2 [E,B,]2 | [B,,A,]2 (G,B,) [E,B,]2 [E,G,]2 | [E,C]3 [E,C] [D,A,]2 [D,B,]2 | %3
 [E,B,]2 [C,E,]2 [B,,B,]2 [B,,B,]2 | [B,D]2 (CD) [B,E]2 [B,C]2 | %5
 [=A,C]2 ([G,D][A,E]) [B,D]2 [A,C]2 | [G,D]2 (CB,) [C,G,]2 [C,C]2 | [F,C]2 [F,C]2 [B,,B,]4 | %8
 [B,C]3 [B,C] [A,C]2 [F,C]2 | [A,B,]2 B,2 [G,B,]2 [E,B,]2 | A,3 [A,C] [G,C]2 [G,=B,]2 | %11
 [C,C]2 [C,A,]2 [D,F,]2 [D,B,]2 | [E,B,]2 B,2 A,2 [CE]2 | [B,D]3 [E,E] [E,E]4 |] %14
V:4
 x8 | x2 B,,2 x4 | x8 | x8 | x2 B,2 x4 | x8 | x2 G,2 x4 | x8 | x8 | x2 (G,F,) x4 | A,3 x5 | x8 | %12
 x2 (F,G,) A,2 x2 | x8 |] %14

